Newaita-dark/apps/48/krusader_root.svg

<svg height="48pt" viewBox="0 0 48 48" width="48pt" xmlns="http://www.w3.org/2000/svg" xmlns:xlink="http://www.w3.org/1999/xlink"><linearGradient id="a" gradientUnits="userSpaceOnUse" x1="23.81478" x2="23.81478" y1="42.0509045" y2="44.03547050005"><stop offset="0" stop-opacity=".27451"/><stop offset="1" stop-opacity="0"/></linearGradient><linearGradient id="b"><stop offset="0" stop-opacity=".313725"/><stop offset=".222222" stop-opacity=".27451"/><stop offset="1" stop-opacity="0"/></linearGradient><radialGradient id="c" cx="450.908936" cy="189.579361" gradientTransform="matrix(.00000026 -.117199 -.210958 -.00000015 79.684395 95.392999)" gradientUnits="userSpaceOnUse" r="21.166656" xlink:href="#b"/><radialGradient id="d" cx="450.908936" cy="189.579361" gradientTransform="matrix(-.00000026 .117199 .210958 .00000015 -31.80678 -11.291218)" gradientUnits="userSpaceOnUse" r="21.166656" xlink:href="#b"/><radialGradient id="e" cx="450.908936" cy="189.579361" gradientTransform="matrix(-.00000026 -.117199 .210958 -.00000015 -31.80678 95.392999)" gradientUnits="userSpaceOnUse" r="21.166656" xlink:href="#b"/><radialGradient id="f" cx="450.908936" cy="189.579361" gradientTransform="matrix(.00000026 .117199 -.210958 .00000015 79.684393 -11.291219)" gradientUnits="userSpaceOnUse" r="21.166656" xlink:href="#b"/><linearGradient id="g" gradientUnits="userSpaceOnUse" x1="23.814786" x2="23.814786" y1="42.0509015" y2="4.34415649995"><stop offset="0" stop-color="#78909c"/><stop offset="1" stop-color="#90a4ae"/></linearGradient><linearGradient id="h"><stop offset="0" stop-color="#ef5350"/><stop offset="1" stop-color="#f44336"/></linearGradient><linearGradient id="i" gradientUnits="userSpaceOnUse" x1="148.166672" x2="148.166672" xlink:href="#h" y1="-168.666672" y2="233.5"/><linearGradient id="j" gradientUnits="userSpaceOnUse" x1="359.833343" x2="359.833343" xlink:href="#h" y1="-168.666672" y2="233.5"/><linearGradient id="k" gradientUnits="userSpaceOnUse" x1="254" x2="254" xlink:href="#h" y1="-168.666656" y2="233.5"/><linearGradient id="l"><stop offset="0" stop-color="#d7ccc8"/><stop offset="1" stop-color="#efebe9"/></linearGradient><linearGradient id="m" gradientUnits="userSpaceOnUse" x1="148.166669" x2="148.166669" xlink:href="#l" y1="43.000001" y2="-84.000003"/><linearGradient id="n" gradientUnits="userSpaceOnUse" x1="148.166669" x2="148.166669" xlink:href="#l" y1="42.999999" y2="-84.000004"/><linearGradient id="o" gradientUnits="userSpaceOnUse" x1="359.833328" x2="359.833328" xlink:href="#l" y1="43.000001" y2="-83.999995"/><linearGradient id="p" gradientUnits="userSpaceOnUse" x1="359.833328" x2="359.833328" xlink:href="#l" y1="43" y2="-84.000004"/><linearGradient id="q" gradientUnits="userSpaceOnUse" x1="148.166669" x2="148.166669" xlink:href="#l" y1="43.000012" y2="-84"/><linearGradient id="r" gradientUnits="userSpaceOnUse" x1="359.833328" x2="359.833328" xlink:href="#l" y1="42.999996" y2="-84"/><linearGradient id="s" gradientUnits="userSpaceOnUse" x1="100.541656" x2="100.541656" xlink:href="#l" y1="212.333328" y2="127.666656"/><path d="m7.691406 42.050781h32.496094v1.984375h-32.496094zm0 0" fill="url(#a)"/><path d="m40.1875 42.050781h3.96875v-1.984375h-3.96875zm0 0" fill="url(#c)"/><path d="m7.691406 42.050781h-3.96875v1.984375h3.96875zm0 0" fill="url(#d)"/><path d="m7.691406 42.050781h-3.96875v-1.984375h3.96875zm0 0" fill="url(#e)"/><path d="m40.1875 42.050781h3.96875v1.984375h-3.96875zm0 0" fill="url(#f)"/><path d="m4.464844 4.34375h38.699218c.820313 0 1.488282.667969 1.488282 1.488281v34.730469c0 .820312-.667969 1.488281-1.488282 1.488281h-38.699218c-.820313 0-1.488282-.667969-1.488282-1.488281v-34.730469c0-.820312.667969-1.488281 1.488282-1.488281zm0 0" fill="url(#g)"/><path d="m4.464844 4.34375c-.824219 0-1.488282.664062-1.488282 1.488281v.496094c0-.824219.664063-1.488281 1.488282-1.488281h38.699218c.824219 0 1.488282.664062 1.488282 1.488281v-.496094c0-.824219-.664063-1.488281-1.488282-1.488281zm0 0" fill="#fff" fill-opacity=".392157"/><path d="m4.464844 42.050781c-.824219 0-1.488282-.664062-1.488282-1.488281v-.496094c0 .824219.664063 1.488282 1.488282 1.488282h38.699218c.824219 0 1.488282-.664063 1.488282-1.488282v.496094c0 .824219-.664063 1.488281-1.488282 1.488281zm0 0" fill-opacity=".235294"/><path d="m4.464844 4.203125c-.898438 0-1.628906.730469-1.628906 1.628906v34.730469c0 .898438.730468 1.628906 1.628906 1.628906h38.699218c.898438 0 1.628907-.730468 1.628907-1.628906v-34.730469c0-.898437-.730469-1.628906-1.628907-1.628906zm0 .28125h38.699218c.75 0 1.347657.597656 1.347657 1.347656v34.730469c0 .75-.597657 1.347656-1.347657 1.347656h-38.699218c-.75 0-1.347656-.597656-1.347656-1.347656v-34.730469c0-.75.597656-1.347656 1.347656-1.347656zm0 0" fill="#212121"/><g stroke="#212121" stroke-linecap="round" stroke-linejoin="round" stroke-width="3"><path d="m63.493937-115.759477h169.358827c5.832776 0 10.582322 4.749546 10.582322 10.582323v201.105795c0 5.832776-4.749546 10.582323-10.582322 10.582323h-169.358827c-5.832777 0-10.582323-4.749547-10.582323-10.582323v-201.105795c0-5.832777 4.749546-10.582323 10.582323-10.582323zm0 0" fill="url(#i)" transform="matrix(.093759 0 0 .093759 0 20.158175)"/><path d="m275.182055-115.759477h169.317164c5.832776 0 10.582323 4.749546 10.582323 10.582323v201.105795c0 5.832776-4.749547 10.582323-10.582323 10.582323h-169.317164c-5.874439 0-10.582323-4.749547-10.582323-10.582323v-201.105795c0-5.832777 4.707884-10.582323 10.582323-10.582323zm0 0" fill="url(#j)" transform="matrix(.093759 0 0 .093759 0 20.158175)"/><path d="m63.493937 127.675609h381.005282c5.832776 0 10.582323 4.749547 10.582323 10.582323v63.493937c0 5.832776-4.749547 10.582323-10.582323 10.582323h-381.005282c-5.832777 0-10.582323-4.749547-10.582323-10.582323v-63.493937c0-5.832776 4.749546-10.582323 10.582323-10.582323zm0 0" fill="url(#k)" transform="matrix(.093759 0 0 .093759 0 20.158175)"/><path d="m84.658582-84.012509h126.987873c5.874439 0 10.623986 4.749547 10.623986 10.582323 0 5.874439-4.749547 10.582323-10.623986 10.582323h-126.987873c-5.832776 0-10.582323-4.707884-10.582323-10.582323 0-5.832776 4.749547-10.582323 10.582323-10.582323zm0 0" fill="url(#m)" transform="matrix(.093759 0 0 .093759 0 20.158175)"/><path d="m84.658582-31.100895h126.987873c5.874439 0 10.623986 4.749547 10.623986 10.582323 0 5.874439-4.749547 10.582323-10.623986 10.582323h-126.987873c-5.832776 0-10.582323-4.707884-10.582323-10.582323 0-5.832776 4.749547-10.582323 10.582323-10.582323zm0 0" fill="url(#n)" transform="matrix(.093759 0 0 .093759 0 20.158175)"/><path d="m296.3467-84.012509h126.987874c5.832776 0 10.582322 4.749547 10.582322 10.582323 0 5.874439-4.749546 10.582323-10.582322 10.582323h-126.987874c-5.874439 0-10.582322-4.707884-10.582322-10.582323 0-5.832776 4.707883-10.582323 10.582322-10.582323zm0 0" fill="url(#o)" transform="matrix(.093759 0 0 .093759 0 20.158175)"/><path d="m296.3467-31.100895h126.987874c5.832776 0 10.582322 4.749547 10.582322 10.582323 0 5.874439-4.749546 10.582323-10.582322 10.582323h-126.987874c-5.874439 0-10.582322-4.707884-10.582322-10.582323 0-5.832776 4.707883-10.582323 10.582322-10.582323zm0 0" fill="url(#p)" transform="matrix(.093759 0 0 .093759 0 20.158175)"/><path d="m84.658582 21.852382h126.987873c5.874439 0 10.623986 4.707883 10.623986 10.582322 0 5.832777-4.749547 10.582323-10.623986 10.582323h-126.987873c-5.832776 0-10.582323-4.749546-10.582323-10.582323 0-5.874439 4.749547-10.582322 10.582323-10.582322zm0 0" fill="url(#q)" transform="matrix(.093759 0 0 .093759 0 20.158175)"/><path d="m296.3467 21.852382h126.987874c5.832776 0 10.582322 4.707883 10.582322 10.582322 0 5.832777-4.749546 10.582323-10.582322 10.582323h-126.987874c-5.874439 0-10.582322-4.749546-10.582322-10.582323 0-5.874439 4.707883-10.582322 10.582322-10.582322zm0 0" fill="url(#r)" transform="matrix(.093759 0 0 .093759 0 20.158175)"/><path d="m87.783284 192.461089c4.124606 4.124607 10.790636 4.124607 14.956905 0l14.956905-14.956905v-.041662c4.166269-4.124606 4.166269-10.790637 0-14.956905l-14.956905-14.956905c-4.166269-4.124606-10.832299-4.166269-14.956905 0-4.166269 4.166268-4.166269 10.832299 0 14.956905l7.457621 7.499284-7.457621 7.499283c-4.166269 4.124607-4.166269 10.790637 0 14.956905zm0 0" fill="url(#s)" transform="matrix(.093759 0 0 .093759 0 20.158175)"/></g></svg>

<?xml version="1.0" encoding="UTF-8"?>
<svg xmlns="http://www.w3.org/2000/svg" xmlns:xlink="http://www.w3.org/1999/xlink" width="48pt" height="48pt" viewBox="0 0 48 48" version="1.1">
<defs>
<linearGradient id="linear0" gradientUnits="userSpaceOnUse" x1="254" y1="233.5" x2="254" y2="254.666672" gradientTransform="matrix(0.093759,0,0,0.093759,-0.00000572259,20.158178)">
<stop offset="0" style="stop-color:rgb(0%,0%,0%);stop-opacity:0.27451;"/>
<stop offset="1" style="stop-color:rgb(0%,0%,0%);stop-opacity:0;"/>
</linearGradient>
<radialGradient id="radial0" gradientUnits="userSpaceOnUse" cx="450.908936" cy="189.579361" fx="450.908936" fy="189.579361" r="21.166656" gradientTransform="matrix(0.000000261256,-0.117199,-0.210958,-0.000000152308,79.684395,95.392999)">
<stop offset="0" style="stop-color:rgb(0%,0%,0%);stop-opacity:0.313725;"/>
<stop offset="0.222222" style="stop-color:rgb(0%,0%,0%);stop-opacity:0.27451;"/>
<stop offset="1" style="stop-color:rgb(0%,0%,0%);stop-opacity:0;"/>
</radialGradient>
<radialGradient id="radial1" gradientUnits="userSpaceOnUse" cx="450.908936" cy="189.579361" fx="450.908936" fy="189.579361" r="21.166656" gradientTransform="matrix(-0.000000261256,0.117199,0.210958,0.000000152308,-31.80678,-11.291218)">
<stop offset="0" style="stop-color:rgb(0%,0%,0%);stop-opacity:0.313725;"/>
<stop offset="0.222222" style="stop-color:rgb(0%,0%,0%);stop-opacity:0.27451;"/>
<stop offset="1" style="stop-color:rgb(0%,0%,0%);stop-opacity:0;"/>
</radialGradient>
<radialGradient id="radial2" gradientUnits="userSpaceOnUse" cx="450.908936" cy="189.579361" fx="450.908936" fy="189.579361" r="21.166656" gradientTransform="matrix(-0.000000261256,-0.117199,0.210958,-0.000000152308,-31.80678,95.392999)">
<stop offset="0" style="stop-color:rgb(0%,0%,0%);stop-opacity:0.313725;"/>
<stop offset="0.222222" style="stop-color:rgb(0%,0%,0%);stop-opacity:0.27451;"/>
<stop offset="1" style="stop-color:rgb(0%,0%,0%);stop-opacity:0;"/>
</radialGradient>
<radialGradient id="radial3" gradientUnits="userSpaceOnUse" cx="450.908936" cy="189.579361" fx="450.908936" fy="189.579361" r="21.166656" gradientTransform="matrix(0.000000261256,0.117199,-0.210958,0.000000152308,79.684393,-11.291219)">
<stop offset="0" style="stop-color:rgb(0%,0%,0%);stop-opacity:0.313725;"/>
<stop offset="0.222222" style="stop-color:rgb(0%,0%,0%);stop-opacity:0.27451;"/>
<stop offset="1" style="stop-color:rgb(0%,0%,0%);stop-opacity:0;"/>
</radialGradient>
<linearGradient id="linear1" gradientUnits="userSpaceOnUse" x1="254" y1="233.5" x2="254" y2="-168.666672" gradientTransform="matrix(0.093759,0,0,0.093759,0,20.158175)">
<stop offset="0" style="stop-color:rgb(47.058824%,56.470588%,61.176471%);stop-opacity:1;"/>
<stop offset="1" style="stop-color:rgb(56.470588%,64.313725%,68.235294%);stop-opacity:1;"/>
</linearGradient>
<linearGradient id="linear2" gradientUnits="userSpaceOnUse" x1="148.166672" y1="-168.666672" x2="148.166672" y2="233.5" gradientTransform="matrix(1,0,0,1,0,0)">
<stop offset="0" style="stop-color:rgb(93.72549%,32.54902%,31.372549%);stop-opacity:1;"/>
<stop offset="1" style="stop-color:rgb(95.686275%,26.27451%,21.176471%);stop-opacity:1;"/>
</linearGradient>
<linearGradient id="linear3" gradientUnits="userSpaceOnUse" x1="148.166656" y1="-168.666672" x2="148.166656" y2="233.5" gradientTransform="matrix(1,0,0,1,211.666687,0)">
<stop offset="0" style="stop-color:rgb(93.72549%,32.54902%,31.372549%);stop-opacity:1;"/>
<stop offset="1" style="stop-color:rgb(95.686275%,26.27451%,21.176471%);stop-opacity:1;"/>
</linearGradient>
<linearGradient id="linear4" gradientUnits="userSpaceOnUse" x1="254" y1="-168.666656" x2="254" y2="233.5" gradientTransform="matrix(1,0,0,1,0,0)">
<stop offset="0" style="stop-color:rgb(93.72549%,32.54902%,31.372549%);stop-opacity:1;"/>
<stop offset="1" style="stop-color:rgb(95.686275%,26.27451%,21.176471%);stop-opacity:1;"/>
</linearGradient>
<linearGradient id="linear5" gradientUnits="userSpaceOnUse" x1="148.166672" y1="42.999996" x2="148.166672" y2="-84.000008" gradientTransform="matrix(1,0,0,1,-0.00000254313,0.0000054196)">
<stop offset="0" style="stop-color:rgb(84.313725%,80%,78.431373%);stop-opacity:1;"/>
<stop offset="1" style="stop-color:rgb(93.72549%,92.156863%,91.372549%);stop-opacity:1;"/>
</linearGradient>
<linearGradient id="linear6" gradientUnits="userSpaceOnUse" x1="148.166672" y1="-9.916669" x2="148.166672" y2="-136.916672" gradientTransform="matrix(1,0,0,1,-0.00000254313,52.916668)">
<stop offset="0" style="stop-color:rgb(84.313725%,80%,78.431373%);stop-opacity:1;"/>
<stop offset="1" style="stop-color:rgb(93.72549%,92.156863%,91.372549%);stop-opacity:1;"/>
</linearGradient>
<linearGradient id="linear7" gradientUnits="userSpaceOnUse" x1="148.166672" y1="42.999996" x2="148.166672" y2="-84" gradientTransform="matrix(1,0,0,1,211.666656,0.0000054196)">
<stop offset="0" style="stop-color:rgb(84.313725%,80%,78.431373%);stop-opacity:1;"/>
<stop offset="1" style="stop-color:rgb(93.72549%,92.156863%,91.372549%);stop-opacity:1;"/>
</linearGradient>
<linearGradient id="linear8" gradientUnits="userSpaceOnUse" x1="148.166672" y1="-9.916668" x2="148.166672" y2="-136.916672" gradientTransform="matrix(1,0,0,1,211.666656,52.916668)">
<stop offset="0" style="stop-color:rgb(84.313725%,80%,78.431373%);stop-opacity:1;"/>
<stop offset="1" style="stop-color:rgb(93.72549%,92.156863%,91.372549%);stop-opacity:1;"/>
</linearGradient>
<linearGradient id="linear9" gradientUnits="userSpaceOnUse" x1="148.166672" y1="-62.833332" x2="148.166672" y2="-189.833344" gradientTransform="matrix(1,0,0,1,-0.00000254313,105.833344)">
<stop offset="0" style="stop-color:rgb(84.313725%,80%,78.431373%);stop-opacity:1;"/>
<stop offset="1" style="stop-color:rgb(93.72549%,92.156863%,91.372549%);stop-opacity:1;"/>
</linearGradient>
<linearGradient id="linear10" gradientUnits="userSpaceOnUse" x1="148.166672" y1="-62.833332" x2="148.166672" y2="-189.833328" gradientTransform="matrix(1,0,0,1,211.666656,105.833328)">
<stop offset="0" style="stop-color:rgb(84.313725%,80%,78.431373%);stop-opacity:1;"/>
<stop offset="1" style="stop-color:rgb(93.72549%,92.156863%,91.372549%);stop-opacity:1;"/>
</linearGradient>
<linearGradient id="linear11" gradientUnits="userSpaceOnUse" x1="100.541656" y1="212.333328" x2="100.541656" y2="127.666656" gradientTransform="matrix(1,0,0,1,0,0)">
<stop offset="0" style="stop-color:rgb(84.313725%,80%,78.431373%);stop-opacity:1;"/>
<stop offset="1" style="stop-color:rgb(93.72549%,92.156863%,91.372549%);stop-opacity:1;"/>
</linearGradient>
</defs>
<g id="surface1">
<path style=" stroke:none;fill-rule:nonzero;fill:url(#linear0);" d="M 7.691406 42.050781 L 40.1875 42.050781 L 40.1875 44.035156 L 7.691406 44.035156 Z M 7.691406 42.050781 "/>
<path style=" stroke:none;fill-rule:nonzero;fill:url(#radial0);" d="M 40.1875 42.050781 L 44.15625 42.050781 L 44.15625 40.066406 L 40.1875 40.066406 Z M 40.1875 42.050781 "/>
<path style=" stroke:none;fill-rule:nonzero;fill:url(#radial1);" d="M 7.691406 42.050781 L 3.722656 42.050781 L 3.722656 44.035156 L 7.691406 44.035156 Z M 7.691406 42.050781 "/>
<path style=" stroke:none;fill-rule:nonzero;fill:url(#radial2);" d="M 7.691406 42.050781 L 3.722656 42.050781 L 3.722656 40.066406 L 7.691406 40.066406 Z M 7.691406 42.050781 "/>
<path style=" stroke:none;fill-rule:nonzero;fill:url(#radial3);" d="M 40.1875 42.050781 L 44.15625 42.050781 L 44.15625 44.035156 L 40.1875 44.035156 Z M 40.1875 42.050781 "/>
<path style=" stroke:none;fill-rule:nonzero;fill:url(#linear1);" d="M 4.464844 4.34375 L 43.164062 4.34375 C 43.984375 4.34375 44.652344 5.011719 44.652344 5.832031 L 44.652344 40.5625 C 44.652344 41.382812 43.984375 42.050781 43.164062 42.050781 L 4.464844 42.050781 C 3.644531 42.050781 2.976562 41.382812 2.976562 40.5625 L 2.976562 5.832031 C 2.976562 5.011719 3.644531 4.34375 4.464844 4.34375 Z M 4.464844 4.34375 "/>
<path style=" stroke:none;fill-rule:nonzero;fill:rgb(100%,100%,100%);fill-opacity:0.392157;" d="M 4.464844 4.34375 C 3.640625 4.34375 2.976562 5.007812 2.976562 5.832031 L 2.976562 6.328125 C 2.976562 5.503906 3.640625 4.839844 4.464844 4.839844 L 43.164062 4.839844 C 43.988281 4.839844 44.652344 5.503906 44.652344 6.328125 L 44.652344 5.832031 C 44.652344 5.007812 43.988281 4.34375 43.164062 4.34375 Z M 4.464844 4.34375 "/>
<path style=" stroke:none;fill-rule:nonzero;fill:rgb(0%,0%,0%);fill-opacity:0.235294;" d="M 4.464844 42.050781 C 3.640625 42.050781 2.976562 41.386719 2.976562 40.5625 L 2.976562 40.066406 C 2.976562 40.890625 3.640625 41.554688 4.464844 41.554688 L 43.164062 41.554688 C 43.988281 41.554688 44.652344 40.890625 44.652344 40.066406 L 44.652344 40.5625 C 44.652344 41.386719 43.988281 42.050781 43.164062 42.050781 Z M 4.464844 42.050781 "/>
<path style=" stroke:none;fill-rule:nonzero;fill:rgb(12.941177%,12.941177%,12.941177%);fill-opacity:1;" d="M 4.464844 4.203125 C 3.566406 4.203125 2.835938 4.933594 2.835938 5.832031 L 2.835938 40.5625 C 2.835938 41.460938 3.566406 42.191406 4.464844 42.191406 L 43.164062 42.191406 C 44.0625 42.191406 44.792969 41.460938 44.792969 40.5625 L 44.792969 5.832031 C 44.792969 4.933594 44.0625 4.203125 43.164062 4.203125 Z M 4.464844 4.484375 L 43.164062 4.484375 C 43.914062 4.484375 44.511719 5.082031 44.511719 5.832031 L 44.511719 40.5625 C 44.511719 41.3125 43.914062 41.910156 43.164062 41.910156 L 4.464844 41.910156 C 3.714844 41.910156 3.117188 41.3125 3.117188 40.5625 L 3.117188 5.832031 C 3.117188 5.082031 3.714844 4.484375 4.464844 4.484375 Z M 4.464844 4.484375 "/>
<path style="fill-rule:nonzero;fill:url(#linear2);stroke-width:3;stroke-linecap:round;stroke-linejoin:round;stroke:rgb(12.941177%,12.941177%,12.941177%);stroke-opacity:1;stroke-miterlimit:4;" d="M 63.493937 -115.759477 L 232.852764 -115.759477 C 238.68554 -115.759477 243.435086 -111.009931 243.435086 -105.177154 L 243.435086 95.928641 C 243.435086 101.761417 238.68554 106.510964 232.852764 106.510964 L 63.493937 106.510964 C 57.66116 106.510964 52.911614 101.761417 52.911614 95.928641 L 52.911614 -105.177154 C 52.911614 -111.009931 57.66116 -115.759477 63.493937 -115.759477 Z M 63.493937 -115.759477 " transform="matrix(0.093759,0,0,0.093759,0,20.158175)"/>
<path style="fill-rule:nonzero;fill:url(#linear3);stroke-width:3;stroke-linecap:round;stroke-linejoin:round;stroke:rgb(12.941177%,12.941177%,12.941177%);stroke-opacity:1;stroke-miterlimit:4;" d="M 275.182055 -115.759477 L 444.499219 -115.759477 C 450.331995 -115.759477 455.081542 -111.009931 455.081542 -105.177154 L 455.081542 95.928641 C 455.081542 101.761417 450.331995 106.510964 444.499219 106.510964 L 275.182055 106.510964 C 269.307616 106.510964 264.599732 101.761417 264.599732 95.928641 L 264.599732 -105.177154 C 264.599732 -111.009931 269.307616 -115.759477 275.182055 -115.759477 Z M 275.182055 -115.759477 " transform="matrix(0.093759,0,0,0.093759,0,20.158175)"/>
<path style="fill-rule:nonzero;fill:url(#linear4);stroke-width:3;stroke-linecap:round;stroke-linejoin:round;stroke:rgb(12.941177%,12.941177%,12.941177%);stroke-opacity:1;stroke-miterlimit:4;" d="M 63.493937 127.675609 L 444.499219 127.675609 C 450.331995 127.675609 455.081542 132.425156 455.081542 138.257932 L 455.081542 201.751869 C 455.081542 207.584645 450.331995 212.334192 444.499219 212.334192 L 63.493937 212.334192 C 57.66116 212.334192 52.911614 207.584645 52.911614 201.751869 L 52.911614 138.257932 C 52.911614 132.425156 57.66116 127.675609 63.493937 127.675609 Z M 63.493937 127.675609 " transform="matrix(0.093759,0,0,0.093759,0,20.158175)"/>
<path style="fill-rule:nonzero;fill:url(#linear5);stroke-width:3;stroke-linecap:round;stroke-linejoin:round;stroke:rgb(12.941177%,12.941177%,12.941177%);stroke-opacity:1;stroke-miterlimit:4;" d="M 84.658582 -84.012509 L 211.646455 -84.012509 C 217.520894 -84.012509 222.270441 -79.262962 222.270441 -73.430186 C 222.270441 -67.555747 217.520894 -62.847863 211.646455 -62.847863 L 84.658582 -62.847863 C 78.825806 -62.847863 74.076259 -67.555747 74.076259 -73.430186 C 74.076259 -79.262962 78.825806 -84.012509 84.658582 -84.012509 Z M 84.658582 -84.012509 " transform="matrix(0.093759,0,0,0.093759,0,20.158175)"/>
<path style="fill-rule:nonzero;fill:url(#linear6);stroke-width:3;stroke-linecap:round;stroke-linejoin:round;stroke:rgb(12.941177%,12.941177%,12.941177%);stroke-opacity:1;stroke-miterlimit:4;" d="M 84.658582 -31.100895 L 211.646455 -31.100895 C 217.520894 -31.100895 222.270441 -26.351348 222.270441 -20.518572 C 222.270441 -14.644133 217.520894 -9.936249 211.646455 -9.936249 L 84.658582 -9.936249 C 78.825806 -9.936249 74.076259 -14.644133 74.076259 -20.518572 C 74.076259 -26.351348 78.825806 -31.100895 84.658582 -31.100895 Z M 84.658582 -31.100895 " transform="matrix(0.093759,0,0,0.093759,0,20.158175)"/>
<path style="fill-rule:nonzero;fill:url(#linear7);stroke-width:3;stroke-linecap:round;stroke-linejoin:round;stroke:rgb(12.941177%,12.941177%,12.941177%);stroke-opacity:1;stroke-miterlimit:4;" d="M 296.3467 -84.012509 L 423.334574 -84.012509 C 429.16735 -84.012509 433.916896 -79.262962 433.916896 -73.430186 C 433.916896 -67.555747 429.16735 -62.847863 423.334574 -62.847863 L 296.3467 -62.847863 C 290.472261 -62.847863 285.764378 -67.555747 285.764378 -73.430186 C 285.764378 -79.262962 290.472261 -84.012509 296.3467 -84.012509 Z M 296.3467 -84.012509 " transform="matrix(0.093759,0,0,0.093759,0,20.158175)"/>
<path style="fill-rule:nonzero;fill:url(#linear8);stroke-width:3;stroke-linecap:round;stroke-linejoin:round;stroke:rgb(12.941177%,12.941177%,12.941177%);stroke-opacity:1;stroke-miterlimit:4;" d="M 296.3467 -31.100895 L 423.334574 -31.100895 C 429.16735 -31.100895 433.916896 -26.351348 433.916896 -20.518572 C 433.916896 -14.644133 429.16735 -9.936249 423.334574 -9.936249 L 296.3467 -9.936249 C 290.472261 -9.936249 285.764378 -14.644133 285.764378 -20.518572 C 285.764378 -26.351348 290.472261 -31.100895 296.3467 -31.100895 Z M 296.3467 -31.100895 " transform="matrix(0.093759,0,0,0.093759,0,20.158175)"/>
<path style="fill-rule:nonzero;fill:url(#linear9);stroke-width:3;stroke-linecap:round;stroke-linejoin:round;stroke:rgb(12.941177%,12.941177%,12.941177%);stroke-opacity:1;stroke-miterlimit:4;" d="M 84.658582 21.852382 L 211.646455 21.852382 C 217.520894 21.852382 222.270441 26.560265 222.270441 32.434704 C 222.270441 38.267481 217.520894 43.017027 211.646455 43.017027 L 84.658582 43.017027 C 78.825806 43.017027 74.076259 38.267481 74.076259 32.434704 C 74.076259 26.560265 78.825806 21.852382 84.658582 21.852382 Z M 84.658582 21.852382 " transform="matrix(0.093759,0,0,0.093759,0,20.158175)"/>
<path style="fill-rule:nonzero;fill:url(#linear10);stroke-width:3;stroke-linecap:round;stroke-linejoin:round;stroke:rgb(12.941177%,12.941177%,12.941177%);stroke-opacity:1;stroke-miterlimit:4;" d="M 296.3467 21.852382 L 423.334574 21.852382 C 429.16735 21.852382 433.916896 26.560265 433.916896 32.434704 C 433.916896 38.267481 429.16735 43.017027 423.334574 43.017027 L 296.3467 43.017027 C 290.472261 43.017027 285.764378 38.267481 285.764378 32.434704 C 285.764378 26.560265 290.472261 21.852382 296.3467 21.852382 Z M 296.3467 21.852382 " transform="matrix(0.093759,0,0,0.093759,0,20.158175)"/>
<path style="fill-rule:nonzero;fill:url(#linear11);stroke-width:3;stroke-linecap:round;stroke-linejoin:round;stroke:rgb(12.941177%,12.941177%,12.941177%);stroke-opacity:1;stroke-miterlimit:4;" d="M 87.783284 192.461089 C 91.90789 196.585696 98.57392 196.585696 102.740189 192.461089 L 117.697094 177.504184 L 117.697094 177.462522 C 121.863363 173.337916 121.863363 166.671885 117.697094 162.505617 L 102.740189 147.548712 C 98.57392 143.424106 91.90789 143.382443 87.783284 147.548712 C 83.617015 151.71498 83.617015 158.381011 87.783284 162.505617 L 95.240905 170.004901 L 87.783284 177.504184 C 83.617015 181.628791 83.617015 188.294821 87.783284 192.461089 Z M 87.783284 192.461089 " transform="matrix(0.093759,0,0,0.093759,0,20.158175)"/>
</g>
</svg>
